packages/core/src/svgs/hbtc.svg

<svg width="24" height="24" viewBox="0 0 24 24" fill="none" xmlns="http://www.w3.org/2000/svg">
<g clip-path="url(#clip0_31_11260)">
<path d="M0 0H24V24H0V0Z" fill="#F0F3FA"/>
<path fill-rule="evenodd" clip-rule="evenodd" d="M14.5928 18.8573C16.9499 18.8573 18.857 16.9844 18.857 14.6744C18.8514 14.12 18.7367 13.5722 18.5194 13.0622C18.302 12.5521 17.9864 12.0899 17.5904 11.7019C17.1944 11.3139 16.7259 11.0076 16.2115 10.8007C15.6972 10.5938 15.1471 10.4902 14.5928 10.4958C13.4739 10.4855 12.3967 10.9199 11.5979 11.7034C10.7991 12.4869 10.3441 13.5555 10.3328 14.6744C10.3378 15.2288 10.452 15.7767 10.6688 16.287C10.8856 16.7972 11.2008 17.2597 11.5964 17.6482C11.992 18.0366 12.4602 18.3433 12.9743 18.5507C13.4884 18.7582 14.0384 18.8623 14.5928 18.8573ZM15.1242 11.983L14.6442 11.8544L14.4428 12.5573L13.2428 12.2273L13.0413 12.9301L13.5213 13.063C13.6542 13.0973 13.7356 13.2344 13.6928 13.363L13.1528 15.2444C13.1185 15.373 12.9813 15.4501 12.8485 15.4158L12.6085 15.3473L12.167 15.9858L13.367 16.3158L13.1613 17.023L13.6413 17.1515L13.8428 16.4487L14.0828 16.513L13.8813 17.2201L14.3613 17.3487L14.5628 16.6458L15.0428 16.7787C15.334 16.8491 15.6411 16.8047 15.9005 16.6547C16.1599 16.5047 16.3515 16.2605 16.4356 15.973C16.5728 15.5015 16.3585 15.0644 15.9642 14.8073C16.1576 14.7355 16.3231 14.6041 16.4369 14.432C16.5507 14.26 16.6069 14.0563 16.5974 13.8502C16.5878 13.6442 16.5131 13.4465 16.3838 13.2858C16.2546 13.125 16.0776 13.0094 15.8785 12.9558L15.6428 12.8873L15.8442 12.1844L15.3642 12.0515L15.1628 12.7544L14.9228 12.6901L15.1242 11.983ZM15.437 13.5901L14.7213 13.393L14.5156 14.1001L15.2356 14.2973C15.2829 14.311 15.3324 14.3152 15.3813 14.3097C15.4302 14.3042 15.4776 14.289 15.5206 14.2651C15.5636 14.2412 15.6015 14.209 15.632 14.1704C15.6626 14.1318 15.6852 14.0875 15.6985 14.0401C15.7114 13.9937 15.7151 13.9451 15.7091 13.8973C15.7032 13.8494 15.6878 13.8033 15.6639 13.7614C15.64 13.7195 15.608 13.6828 15.5698 13.6534C15.5316 13.624 15.4879 13.6025 15.4413 13.5901H15.437ZM15.1542 15.0344L14.3142 14.803L14.0442 15.7458L14.8842 15.973C14.9461 15.9907 15.0109 15.9961 15.0749 15.9887C15.1389 15.9814 15.2008 15.9616 15.2571 15.9303C15.3134 15.8991 15.363 15.8571 15.4031 15.8067C15.4431 15.7563 15.4729 15.6984 15.4906 15.6365C15.5083 15.5746 15.5137 15.5098 15.5064 15.4459C15.4991 15.3819 15.4792 15.32 15.448 15.2636C15.4168 15.2073 15.3747 15.1577 15.3243 15.1177C15.2739 15.0776 15.2161 15.0478 15.1542 15.0301V15.0344Z" fill="#F89828"/>
<path d="M11.0701 10.4958C11.2844 9.69866 11.4772 7.64151 11.9529 6.4458C12.4916 7.47579 13.1259 8.45293 13.8472 9.36437C12.8335 9.4729 11.871 9.86504 11.0701 10.4958Z" fill="url(#paint0_linear_31_11260)"/>
<path d="M7.41419 10.0969C8.51991 8.62265 10.0885 6.72836 10.6713 3.85693C11.0742 4.94122 11.4556 8.11693 9.72419 12.1541C8.21133 15.6684 9.85705 17.8626 11.0742 18.8569C6.02133 18.6941 4.63276 13.8126 7.41848 10.0969H7.41419Z" fill="url(#paint1_linear_31_11260)"/>
<path d="M7.29865 14.6744C7.20436 15.6301 7.26864 16.7015 7.67579 17.7215C8.50722 18.3901 9.64722 18.8101 11.0701 18.8572C9.85293 17.8629 8.20722 15.6729 9.72007 12.1544C11.4172 8.19435 11.0872 5.0615 10.6886 3.92578C10.7229 6.27435 9.8315 8.0915 8.94864 9.89578C8.2115 11.4001 7.47865 12.8958 7.29865 14.6744ZM12.3429 9.75007C12.2685 8.68949 12.1196 7.63546 11.8972 6.59578C11.6284 7.46545 11.4306 8.35552 11.3058 9.25721C11.2201 9.76721 11.1472 10.2086 11.0701 10.4958C11.3615 10.2472 11.8115 9.96864 12.3429 9.75007Z" fill="url(#paint2_linear_31_11260)"/>
</g>
<defs>
<linearGradient id="paint0_linear_31_11260" x1="12.0172" y1="6.64294" x2="12.6729" y2="9.90009" gradientUnits="userSpaceOnUse">
<stop stop-color="#96CAFF"/>
<stop offset="1" stop-color="#82B0F9"/>
</linearGradient>
<linearGradient id="paint1_linear_31_11260" x1="10.8685" y1="4.65408" x2="8.62276" y2="18.8698" gradientUnits="userSpaceOnUse">
<stop stop-color="#7EB5FE"/>
<stop offset="1" stop-color="#246FFE"/>
</linearGradient>
<linearGradient id="paint2_linear_31_11260" x1="10.7315" y1="4.5215" x2="10.1486" y2="18.7929" gradientUnits="userSpaceOnUse">
<stop stop-color="#81B0FA"/>
<stop offset="1" stop-color="#0E33E8"/>
</linearGradient>
<clipPath id="clip0_31_11260">
<rect width="24" height="24" fill="white"/>
</clipPath>
</defs>
</svg>

<svg xmlns="http://www.w3.org/2000/svg" width="24" height="24" fill="none" viewBox="0 0 24 24"><g clip-path="url(#a)"><path fill="#F0F3FA" d="M0 0h24v24H0z"/><path fill="#F89828" fill-rule="evenodd" d="M14.593 18.857c2.357 0 4.264-1.873 4.264-4.183a4.22 4.22 0 0 0-4.264-4.178 4.22 4.22 0 0 0-4.26 4.178 4.22 4.22 0 0 0 4.26 4.183m.531-6.874-.48-.129-.201.703-1.2-.33-.202.703.48.133a.237.237 0 0 1 .172.3l-.54 1.881a.25.25 0 0 1-.305.172l-.24-.069-.441.639 1.2.33-.206.707.48.128.202-.702.24.064-.202.707.48.129.202-.703.48.133a1.166 1.166 0 0 0 1.393-.806c.137-.472-.078-.909-.472-1.166a.972.972 0 0 0-.085-1.851l-.236-.069.201-.703-.48-.132-.201.702-.24-.064zm.313 1.607-.716-.197-.205.707.72.197a.374.374 0 0 0 .473-.4.36.36 0 0 0-.268-.307zm-.283 1.444-.84-.231-.27.943.84.227a.49.49 0 1 0 .27-.943z" clip-rule="evenodd"/><path fill="url(#b)" d="M11.07 10.496c.214-.797.407-2.854.883-4.05a18.6 18.6 0 0 0 1.894 2.918 5.4 5.4 0 0 0-2.777 1.132"/><path fill="url(#c)" d="M7.414 10.097c1.106-1.474 2.675-3.369 3.257-6.24.403 1.084.785 4.26-.947 8.297-1.513 3.514.133 5.709 1.35 6.703-5.053-.163-6.441-5.044-3.656-8.76z"/><path fill="url(#d)" d="M7.299 14.674c-.095.956-.03 2.027.377 3.047.831.67 1.971 1.09 3.394 1.136-1.217-.994-2.863-3.184-1.35-6.703 1.697-3.96 1.367-7.092.969-8.228.034 2.348-.857 4.166-1.74 5.97-.738 1.504-1.47 3-1.65 4.778m5.044-4.924a23 23 0 0 0-.446-3.154c-.269.87-.466 1.76-.591 2.661-.086.51-.159.952-.236 1.239.291-.249.742-.527 1.273-.746"/></g><defs><linearGradient id="b" x1="12.017" x2="12.673" y1="6.643" y2="9.9" gradientUnits="userSpaceOnUse"><stop stop-color="#96CAFF"/><stop offset="1" stop-color="#82B0F9"/></linearGradient><linearGradient id="c" x1="10.868" x2="8.623" y1="4.654" y2="18.87" gradientUnits="userSpaceOnUse"><stop stop-color="#7EB5FE"/><stop offset="1" stop-color="#246FFE"/></linearGradient><linearGradient id="d" x1="10.732" x2="10.149" y1="4.521" y2="18.793" gradientUnits="userSpaceOnUse"><stop stop-color="#81B0FA"/><stop offset="1" stop-color="#0E33E8"/></linearGradient><clipPath id="a"><path fill="#fff" d="M0 0h24v24H0z"/></clipPath></defs></svg>
